places/scalable/folder-yellow-remote.svg

<svg xmlns="http://www.w3.org/2000/svg" style="isolation:isolate" width="256" height="256"><path d="M53.039 21C16.724 21 13 23.055 13 59.371v52.167h230V79.563c0-36.316-3.724-42.102-40.039-42.102h-89.336L97.198 21H53.039z" fill="#eab305"/><path d="M53.039 70.384C16.722 70.384 13 74.114 13 110.429v84.524C13 231.269 16.722 235 53.039 235h149.922c36.317 0 40.039-3.731 40.039-40.047V93.969c0-36.316-3.722-40.047-40.039-40.047H119.53l-16.438 16.462H53.039z" fill="#fdc92b"/><linearGradient id="a" y1=".5" x2="0" y2="-.5" gradientTransform="matrix(230 0 0 181.078 13 53.922)" gradientUnits="userSpaceOnUse"><stop offset="0%" stop-opacity=".07" stop-color="#fff"/><stop offset="67.282%" stop-opacity="0" stop-color="#fcefe8"/></linearGradient><path d="M53.039 70.384C16.722 70.384 13 74.114 13 110.429v84.524C13 231.269 16.722 235 53.039 235h149.922c36.317 0 40.039-3.731 40.039-40.047V93.969c0-36.316-3.722-40.047-40.039-40.047H119.53l-16.438 16.462H53.039z" fill="url(#a)"/><g opacity=".4"><radialGradient id="b" fx=".5" fy=".136" cx=".5" cy=".5" r=".272" gradientTransform="matrix(230 0 0 60.62 13 21)" gradientUnits="userSpaceOnUse"><stop offset="0%" stop-color="#fff"/><stop offset="100%" stop-opacity=".204" stop-color="#fff"/></radialGradient><path d="M53.039 21C16.724 21 13 23.055 13 59.371v2.059c0-36.316 3.724-38.373 40.039-38.373h44.159l16.427 16.461h89.336c36.315 0 40.039 5.786 40.039 42.102v-2.057c0-36.316-3.724-42.102-40.039-42.102h-89.336L97.198 21H53.039z" fill="url(#b)"/></g><g opacity=".4"><radialGradient id="c" fx=".482" fy=".211" cx=".5" cy=".5" r=".272" gradientTransform="matrix(230 0 0 58.565 13 53.922)" gradientUnits="userSpaceOnUse"><stop offset="0%" stop-color="#fff"/><stop offset="100%" stop-opacity=".204" stop-color="#fff"/></radialGradient><path d="M119.53 53.922l-16.438 16.462H53.039C16.724 70.384 13 74.112 13 110.427v2.06c0-36.316 3.724-40.046 40.039-40.046h50.053l16.438-16.46h83.431c36.315 0 40.039 3.727 40.039 40.043v-2.057c0-36.316-3.724-40.045-40.039-40.045H119.53z" fill="url(#c)"/></g><path d="M243 167.096l-65.715 65.845h25.676c36.315 0 40.039-3.727 40.039-40.043v-25.802z" fill="#FFF" opacity=".1"/><path d="M13 192.898v2.057C13 231.271 16.724 235 53.039 235h149.922c36.315 0 40.039-3.729 40.039-40.045v-2.057c0 36.316-3.724 40.043-40.039 40.043H53.039c-36.315 0-40.039-3.727-40.039-40.043z" opacity=".2"/><g opacity=".62"><path d="M128 92c-33.102 0-60 26.898-60 60 0 33.102 26.898 60 60 60 33.102 0 60-26.898 60-60 0-33.102-26.898-60-60-60zm0 6c.075 0 .15.004.225.005 9.154 9.384 15.564 19.661 19.395 29.995h-39.24c3.831-10.334 10.241-20.611 19.395-29.995.075-.001.15-.005.225-.005zm9.042.764c17.311 2.911 31.801 14.031 39.345 29.236h-22.423c-3.414-10.046-9.024-20.002-16.922-29.236zm-18.084.002C111.06 108 105.448 117.954 102.034 128H79.611c7.544-15.205 22.036-26.322 39.347-29.234zM77.075 134h23.168c-1.564 6.187-2.313 12.359-2.243 18.363.068 5.825.835 11.735 2.311 17.637H77.075A53.993 53.993 0 0 1 74 152a53.993 53.993 0 0 1 3.075-18zm29.381 0h43.085c1.71 6.2 2.528 12.359 2.459 18.293A70.717 70.717 0 0 1 149.518 170h-43.036A70.717 70.717 0 0 1 104 152.293c-.069-5.934.747-12.093 2.456-18.293zm49.299 0h23.168A54.02 54.02 0 0 1 182 152a54.02 54.02 0 0 1-3.077 18h-23.234c1.476-5.902 2.243-11.812 2.311-17.637.07-6.004-.681-12.176-2.245-18.363zm-76.142 42h22.453c3.371 10.031 8.916 19.931 16.885 29.231-17.307-2.913-31.794-14.029-39.338-29.231zm28.784 0h39.206c-3.77 10.302-10.09 20.482-19.378 29.995-.075.001-.15.005-.225.005-.075 0-.15-.005-.225-.005-9.288-9.513-15.608-19.693-19.378-29.995zm45.534 0h22.456c-7.544 15.202-22.031 26.318-39.338 29.231 7.969-9.3 13.512-19.201 16.882-29.231z" fill="#333"/></g></svg>

<?xml version="1.0" standalone="no"?><!-- Generator: Gravit.io -->
<svg xmlns="http://www.w3.org/2000/svg" 
  xmlns:xlink="http://www.w3.org/1999/xlink" style="isolation:isolate" viewBox="0 0 256 256" width="256" height="256">
  <switch>
    <g>
      <g id="folder">
        <path d=" M 53.039 21 C 16.724 21 13 23.055 13 59.371 L 13 111.538 L 243 111.538 L 243 79.563 C 243 43.247 239.276 37.461 202.961 37.461 L 113.625 37.461 L 97.198 21 L 53.039 21 Z " id="orange" fill="#eab305"/>
        <path d=" M 53.039 70.384 C 16.722 70.384 13 74.114 13 110.429 L 13 194.953 C 13 231.269 16.722 235 53.039 235 L 202.961 235 C 239.278 235 243 231.269 243 194.953 L 243 93.969 C 243 57.653 239.278 53.922 202.961 53.922 L 119.53 53.922 L 103.092 70.384 L 53.039 70.384 Z " id="change-color-easy" fill="#fdc92b"/>
        <linearGradient id="_lgradient_35" x1="0" y1="0.5" x2="2.83276944882399e-16" y2="-0.5" gradientTransform="matrix(230,0,0,181.078,13,53.922)" gradientUnits="userSpaceOnUse">
          <stop offset="0%" stop-opacity="0.07" style="stop-color:rgb(255,255,255)"/>
          <stop offset="67.28219512106674%" stop-opacity="0" style="stop-color:rgb(252,239,232)"/>
        </linearGradient>
        <path d=" M 53.039 70.384 C 16.722 70.384 13 74.114 13 110.429 L 13 194.953 C 13 231.269 16.722 235 53.039 235 L 202.961 235 C 239.278 235 243 231.269 243 194.953 L 243 93.969 C 243 57.653 239.278 53.922 202.961 53.922 L 119.53 53.922 L 103.092 70.384 L 53.039 70.384 Z " id="gradient white" fill="url(#_lgradient_35)"/>
        <g opacity="0.4">
          <radialGradient id="_rgradient_69" fx="0.5000000213726793" fy="0.13577386516315215" cx="0.5" cy="0.5" r="0.27154159375000003" gradientTransform="matrix(230,0,0,60.62,13,21)" gradientUnits="userSpaceOnUse">
            <stop offset="0%" stop-opacity="1" style="stop-color:rgb(255,255,255)"/>
            <stop offset="100%" stop-opacity="0.20392157" style="stop-color:rgb(255,255,255)"/>
          </radialGradient>
          <path d=" M 53.039 21 C 16.724 21 13 23.055 13 59.371 L 13 61.43 C 13 25.114 16.724 23.057 53.039 23.057 L 97.198 23.057 L 113.625 39.518 L 202.961 39.518 C 239.276 39.518 243 45.304 243 81.62 L 243 79.563 C 243 43.247 239.276 37.461 202.961 37.461 L 113.625 37.461 L 97.198 21 L 53.039 21 Z " id="white" fill="url(#_rgradient_69)"/>
        </g>
        <g opacity="0.4">
          <radialGradient id="_rgradient_70" fx="0.48214287810452355" fy="0.2108154047287485" cx="0.5" cy="0.5" r="0.27154159375" gradientTransform="matrix(230,0,0,58.565,13,53.922)" gradientUnits="userSpaceOnUse">
            <stop offset="0%" stop-opacity="1" style="stop-color:rgb(255,255,255)"/>
            <stop offset="100%" stop-opacity="0.20392157" style="stop-color:rgb(255,255,255)"/>
          </radialGradient>
          <path d=" M 119.53 53.922 L 103.092 70.384 L 53.039 70.384 C 16.724 70.384 13 74.112 13 110.427 L 13 112.487 C 13 76.171 16.724 72.441 53.039 72.441 L 103.092 72.441 L 119.53 55.981 L 202.961 55.981 C 239.276 55.981 243 59.708 243 96.024 L 243 93.967 C 243 57.651 239.276 53.922 202.961 53.922 L 119.53 53.922 Z " id="white" fill="url(#_rgradient_70)"/>
        </g>
        <g opacity="0.1">
          <path d=" M 243 167.096 L 177.285 232.941 L 202.961 232.941 C 239.276 232.941 243 229.214 243 192.898 L 243 167.096 Z " id="white" fill="rgb(255,255,255)"/>
        </g>
        <g opacity="0.2">
          <path d=" M 13 192.898 L 13 194.955 C 13 231.271 16.724 235 53.039 235 L 202.961 235 C 239.276 235 243 231.271 243 194.955 L 243 192.898 C 243 229.214 239.276 232.941 202.961 232.941 L 53.039 232.941 C 16.724 232.941 13 229.214 13 192.898 Z " id="dark" fill="rgb(0,0,0)"/>
        </g>
      </g>
      <g opacity="0.62">
        <path d=" M 128 92 C 94.898 92 68 118.898 68 152 C 68 185.102 94.898 212 128 212 C 161.102 212 188 185.102 188 152 C 188 118.898 161.102 92 128 92 Z  M 128 98 C 128.075 98 128.15 98.004 128.225 98.005 C 137.379 107.389 143.789 117.666 147.62 128 L 108.38 128 C 112.211 117.666 118.621 107.389 127.775 98.005 C 127.85 98.004 127.925 98 128 98 L 128 98 Z  M 137.042 98.764 C 154.353 101.675 168.843 112.795 176.387 128 L 153.964 128 C 150.55 117.954 144.94 107.998 137.042 98.764 L 137.042 98.764 Z  M 118.958 98.766 C 111.06 108 105.448 117.954 102.034 128 L 79.611 128 C 87.155 112.795 101.647 101.678 118.958 98.766 L 118.958 98.766 Z  M 77.075 134 L 100.243 134 C 98.679 140.187 97.93 146.359 98 152.363 C 98.068 158.188 98.835 164.098 100.311 170 L 77.075 170 C 75.089 164.37 74 158.316 74 152 C 74 145.685 75.089 139.629 77.075 134 Z  M 106.456 134 L 149.541 134 C 151.251 140.2 152.069 146.359 152 152.293 C 151.932 158.13 151.127 164.067 149.518 170 L 106.482 170 C 104.873 164.067 104.068 158.13 104 152.293 C 103.931 146.359 104.747 140.2 106.456 134 L 106.456 134 Z  M 155.755 134 L 178.923 134 C 180.908 139.629 182 145.685 182 152 C 182 158.316 180.908 164.37 178.923 170 L 155.689 170 C 157.165 164.098 157.932 158.188 158 152.363 C 158.07 146.359 157.319 140.187 155.755 134 Z  M 79.613 176 L 102.066 176 C 105.437 186.031 110.982 195.931 118.951 205.231 C 101.644 202.318 87.157 191.202 79.613 176 Z  M 108.397 176 L 147.603 176 C 143.833 186.302 137.513 196.482 128.225 205.995 C 128.15 205.996 128.075 206 128 206 C 127.925 206 127.85 205.995 127.775 205.995 C 118.487 196.482 112.167 186.302 108.397 176 L 108.397 176 Z  M 153.931 176 L 176.387 176 C 168.843 191.202 154.356 202.318 137.049 205.231 C 145.018 195.931 150.561 186.03 153.931 176 Z " id="remote" fill="#333333"/>
      </g>
    </g>
  </switch>
</svg>
